X:13
T:Bourree a huit
Z:Jack Campin, 2014
F:http://www.campin.me.uk/Music/YoupNannetteD.abc
S:p20, p1000209.jpg
M:3/8
L:1/8
Q:1/4=120
K:GMin
D|d2c|d2A/B/|cBA   |BG\
D|d2c|d2A/B/|cBA   |G2:|
K:G
G|GFG|D2G   |F/G/Ad|BG\
D|GFG|D2G   |F/G/AF|G2:|

